X:1
T:Morte te chiamo
T:Madalena Casulana
T:Source : Secondo libro de madrigali a quattro voci---Venetia---G.Scotto---1570. Editor : André Vierendeels (19/08/17).
T:Morte te chiamo
T:©
T:©
T:©
T:©
C:Madalena Casulana
Z:©
%%score [ 1 2 3 4 ]
L:1/8
Q:1/4=120
M:2/2
K:C
V:1 treble nm="Soprano 1" snm="S 1"
V:2 treble nm="Soprano 2" snm="S 2"
V:3 treble nm="Alto" snm="A"
V:4 treble-8 nm="Tenor" snm="T"
V:1
 c8- | c8 | B8- | B8 | z4 ^c4 | d8 | B8 | z4 B4- | B2 B2 B4 | d8 | B4 e4- | e2 e2 d4 | e2 B2 c4- | %13
w: Mor-||te|_|te|chia-|mo,|ec-|* com' ap-|pres-|so, pren-|* dim' e|fa che manch'|
 c4 B4 | A4 A4- | A4 G4 | A6 A2 | c4 G2 c2 | B4 d4- | d2 e2 c2 B2 | A4 B2 B2 | c4 z2 A2 | c8 | z8 | %24
w: _ il|do- lo-||re, non|po- i per|ch'in te|_ non re- gna'il|co- re si|fa, si|fa,||
 z4 z2 e2- | e2 e2 d4 | d2 c2 c4 | d2 c4 _B2 | A8 | A8 | z2 B2 c2 B2- | B2 e2 c2 B2 | A4 B2 B2 | %33
w: che|_ chi vi-|ta non ha|non puo mo-|ri-|re,|per- ch'in te|_ non re- gn'il|co- re si|
 c4 z2 A2 | c8 | z8 | z4 z2 c2- | c2 c2 A4 | _B2 A2 G2 F2- | F2 E2 A2 G2- | G2 F2 E4 | ^F8 |] %42
w: fa, si|fa,||che|_ chi vi-|ta non ha non|_ puo, non puo|_ mo- ri-|re.|
V:2
 z8 | z8 | E8- | E8 | e8 | A8 | z4 d4- | d2 d2 d4 | G8 | A8 | z8 | z8 | z8 | z8 | z4 d4 | d8 | %16
w: ||Che|_|vo-|i,|ec-|* com' ap-|pres-|so,|||||non|pos-|
 ^c4 z4 | e4 z2 e2 | d4 B4- | B2 c2 A2 G2 | ^F4 G4 |"^-natural" z2 E2 F4 | z2 G2 A2 A2- | %23
w: so,|non, per-|ch'in te|_ non re- gna'il|co- re,|non fa,|non fa, fat-|
 AA E2 F2 E2 | D4 C2 c2- | c2 c2 A4 | _B2 A2 G2 A2 | G4 F2 E2- | ED D3 ^C/B,/ C2 | D2 d2 d4 | %30
w: * te re- sti- tu-|i- re, che|_ chi vi-|ta non ha non|puo mo- ri-||re, per- che,|
 z2 d2 e2 d2- | d2 c2 A2 G2 | ^F4 G4 |"^-natural" z2 E2 F4 | z2 G2 A2 A2- | AA E2 F2 E2 | %36
w: per- ch'in te|_ non re- gn'il|co- re,|non fa,|non fa, fat-|* te re- sti- tu-|
 D4 E2 e2- | e2 e2 d4 | d2 c2 c4 | d2 c4 _B2 | A8 | A8 |] %42
w: i- re, che|_ chi vi-|ta non ha|non puo mo-|ri-|re.|
V:3
 z8 | A8- |"^#" A4 G2 F2 | ^G8 | A4 A4 | ^F8 | G8 | z4 G4- | G2 G2 G2 G2- | G2 ^FE F4 | G8 | %11
w: |Mor-|||te, te|chia-|mo,|ec-|* com' ap- pres-||so,|
 z4 G4- | G2 G2 F4 | E2 C2 E4 | F4 F4- | F2 E2 D4 | E2 E2 ^F4 | G4 z4 | z2 G,2 G2 G2- | %19
w: pren-|* dim'- e|fa che manch'|il do-|* * lo-|re, non po-|i,|per ch'in te|
 G2 E2 F2 G2 | D4 G,4 | z2 G2 A4 | z2 E2 F4 | z8 | z4 z2 G2- | G2 A2 F4 | F2 F2 E2 F2- | %27
w: _ non re- gna'il|co- re,|non fa,|non fa,||che|_ chi vi-|ta non ha non|
 F2 E2 A2 G2- | G2 F2 E4 | ^F8 | z2 G2 C2 G2- | G2 E2 F2 G2 | D4 G,4 | z2 G2 A4 | z2 E2 F4 | z8 | %36
w: _ puo, non puo|_ mo- ri-|re,|per- ch'in te|_ non re- gn'il|co- re,|non fa,|non fa,||
 z4 z2 G2- | G2 A2 F4 | F2 F2 E2 A2 | G4 F2 E2- | ED D3 ^C/B,/ C2 | D8 |] %42
w: che|_ chi vi-|ta non ha non|puo mo- ri-||re.|
V:4
 z8 | z8 | z8 | z8 | z4 A4 | d8 | G8 | g4 g2 g2 | e8 | d8 | z4 c4- | c2 c2 B4 | c2 G2 A4- | A4 G4 | %14
w: ||||Te|chia-|mo,|ec- comm' ap-|pres-|so,|pren-|* dim' e|fa che manch'|_ il|
 F4 D4 | _B8 | A2 A2 d4 | c2 C2 c4 | z8 | z8 | z4 z2 d2 | c4 z2 d2 | c4 F3 F | F2 A2 A2 c2- | %24
w: do- lo-||re, non po-|i, per che|||si|fa, si|fa, fat- te|re- sti- tu- i-|
 cB/A/ B2 c2 c2- | c2 A2 d4 | _B2 F2 c2 A2 |"^b" B2 c2 F2 G2 | A8 | D4 z2 d2 | G4 z4 | z8 | %32
w: * * * * re, che|_ chi vi-|ta non ha non|puo, non puo mo-|ri-|re, per-|che||
 z4 z2 d2 | c4 z2 d2 | c4 F3 F | F2 A2 A2 c2- | cB/A/ B2 c2 c2- | c2 A2 d4 | _B2 F2 c2 A2 | %39
w: si|fa, si|fa, fat- te|re- sti- tu- i-|* * * * re, che|_ chi vi-|ta non ha non|
"^b" B2 c2 F2 G2 | A8 | D8 |] %42
w: puo, non puo mo-|ri-|re.|

